!!!COM: Beethoven, Ludwig van
!!!CDT: 1770///-1827///
!!!OTL: Piano Sonata no. 30, mvmt. 2
!!!ODT: 1820///
!!!OMD: Andante
!!!OMV: Mvmt. 3
!!!OPS: Op. 109
**kern	**kern	**dynam
*staff2	*staff1	*staff1/2
*>[TA,TA,TB,TB,1A,1A1,1A,1A2,1B,1B1,1B2,Var2,Var3,4I,4A,4A1,4A,4A2,4B,4B1,4B,4B2,Var5,Var6,Theme]	*>[TA,TA,TB,TB,1A,1A1,1A,1A2,1B,1B1,1B2,Var2,Var3,4I,4A,4A1,4A,4A2,4B,4B1,4B,4B2,Var5,Var6,Theme]	*>[TA,TA,TB,TB,1A,1A1,1A,1A2,1B,1B1,1B2,Var2,Var3,4I,4A,4A1,4A,4A2,4B,4B1,4B,4B2,Var5,Var6,Theme]
*>norep[TA,TB,1A,1A2,1B,1B2,Var2,Var3,4I,4A,4A2,4B,4B2,Var5,Var6,Theme]	*>norep[TA,TB,1A,1A2,1B,1B2,Var2,Var3,4I,4A,4A2,4B,4B2,Var5,Var6,Theme]	*>norep[TA,TB,1A,1A2,1B,1B2,Var2,Var3,4I,4A,4A2,4B,4B2,Var5,Var6,Theme]
*>TA	*>TA	*>TA
*k[f#c#g#d#]	*k[f#c#g#d#]	*k[f#c#g#d#]
*E:	*E:	*E:
*M3/4	*M3/4	*M3/4
*MM84	*MM84	*MM84
*clefF4	*clefG2	*
=1-	=1-	=1-
*	*^	*
4EE/	(4g#/	4B\	.
4GG#/	4.e/	4B\	.
4AA/	.	4c#\	.
.	8f#/	.	.
*	*v	*v	*
=2	=2	=2
4BB/	4F#/ 4d#/	.
4C#/	2F#/ 2A/ 2B/)	.
4D#/	.	.
=3	=3	=3
*	*^	*
4E\	4G#/ 4B/ (4g#/	4r	.
4G#\	4.e/	4B\	.
4A#\	.	4c#\	.
.	8f#/)	.	.
*	*v	*v	*
=4	=4	=4
4B\	4d#/ (4f#/	.
4F#\	4c#/ 4e/ 4a#/	.
8BB/L	4d#/ 4f#/ 4b/)	.
8AAn/J	.	.
=5	=5	=5
*^	*	*
.	.	(BQ/LLL	.
.	.	eQ/	.
.	.	g#Q/JJJ)	.
*	*	*^	*
4GG#/	(2GG#\	(4b/	4r	.
4G#/	.	4.e/	4B\	.
4AA/	4r	.	4c#\	.
.	.	16g#/LL	.	.
.	.	16f#/JJ)	.	.
*v	*v	*	*	*
*	*v	*v	*
=6	=6	=6
4BB\ 4F#\	4d#/	.
4C#\ 4E\	4B/	.
.	AQ/LLL	.
.	BQ/	.
.	AQ/	.
.	G#Q/JJJ	.
4D#\) 4F#\	4A/	.
=7	=7	=7
*^	*	*
4r	(4E\	(4G#/	.
2E/	4CC#\ 4C#\	4.e^/	.
.	4CCn\) 4Cn\	.	.
.	.	8A#/)	.
*	*	*clefF4	*clefF4
=8	=8	=8	=8
*	*	*^	*
(4EE/	2CC#\	(2A#/	4Gn\	p
4GGn/	.	.	4E\	.
4BB/)	4BBB\	4B/	4D#\)	.
*v	*v	*	*	*
*	*v	*v	*
=9:|!|:	=9:|!|:	=9:|!|:
*>TB	*>TB	*>TB
*^	*^	*
4B/	4r	(4b/	4r	.
4B/	4D#\	4.b/	4f#\	.
4B/	4E#\	.	4g#\	.
.	.	8cc#/	.	.
*v	*v	*	*	*
=10	=10	=10	=10
4F#\ 4B\	4b/	4r	.
4C#\ 4B\	4.an/	4e\	.
4D#\ 4B\	.	4f#\	.
.	8b/	.	.
=11	=11	=11	=11
4E\ 4B\	4a/	4r	.
4BB\ 4B\	4.g#/	4e\	.
4C#\ 4c#\	.	4e\	.
.	8ee/	.	.
*	*v	*v	*
=12	=12	=12
4D#\ 4B\	4d#/ 4g#/	.
4D#\ 4A#\	4c#/ 4f##/	>
4GG#\ 4G#\	4B/ 4g#/)	.
=13	=13	=13
.	(Anq/LLL	.
.	c#q/	.
.	f#q/JJJ)	.
4FF#\ 4F#\	4a/	<
4F#\ 4A\	(4.a/	.
4E\ 4F#\ 4A\	.	.
.	8cc#\)	.
=14	=14	=14
D#q/LLL	d#q/LLL	.
F#q/	f#q/	.
Aq/	aq/JJJ	.
Bq/JJJ	.	.
[2D#\ [2F#\ [2A\ [2B\	(4.cc#/	.
.	8b/)	>
8D#\] 8F#\] 8A\] 8B\L]	(8f#'/ 8a'/L	p
8E\ 8G#\ 8B\J	8e'/) 8g#'/J	.
=15	=15	=15
*^	*^	*
4r	2BB\	(8.g#/L	4e\	.
.	.	16a/Jk	.	.
(4G#/	.	4.b/	4e\	.
4F#/)	4BB\	.	4d#\	.
.	.	8a/)	.	.
*v	*v	*	*	*
*	*v	*v	*
=16	=16	=16
(4EE/	2B/ 2d#/ 2f#/ (2a/	.
4BB/	.	.
4E\)	4B/ 4e/ 4g#/)	.
=17:|!	=17:|!	=17:|!
*>1A	*>1A	*>1A
*M3/4	*M3/4	*M3/4
.	(bq/	.
4EE/	(2bb\)	p
4BB\ 4E\ 4G#\ 4B\	.	.
4BB\ 4E\ 4G#\ 4B\	8.ee\L	.
.	16ff#\Jk	.
=18	=18	=18
4FF#/	4ee\	.
4BB\ 4F#\ 4A\ 4B\	[4dd#\)	.
4BB\ 4F#\ 4A\ 4B\	8.dd#\L]	.
.	16b\Jk	.
=19	=19	=19
4GG#/	(4.bb\	.
4BB\ 4E\ 4G#\ 4B\	.	.
.	8dd#\	.
4BB\ 4E\ 4G#\ 4B\	40ee\LLL	.
.	40ff#\	.
.	40ee\	.
.	40dd#\	.
.	40ee\JJJ	.
.	16ff#\LL	.
.	16gg#\JJ)	.
=20	=20	=20
4AA/	(4gg#\	<
4BB\ 4D#\ 4F#\ 4B\	4.ff#\	.
4BB\ 4D#\ 4F#\ 4B\	.	.
.	8dd#\)	.
=21	=21	=21
.	(bq/	.
4GG#/	(4.bb^\)	.
4BB\ 4E\ 4G#\ 4B\	.	.
.	8gg#\L)	.
4BB\ 4E\ 4G#\ 4B\	(8.ff#'\	.
.	16ee'\Jk)	.
=22	=22	=22
4FF#/	(8ee\	.
.	4dd#\)	.
4BB\ 4D#\ 4F#\ 4A\	.	.
.	(8cc#'\L	.
4DD#/ 4BB/	8b'\	.
.	8a'\J)	.
=23	=23	=23
*^	*^	*
4BB/	(4EE\	(8a/L	2r	.
.	.	8g#/	.	.
4BB/	8DD#\L	8f#/	.	.
.	8DDn\J	8b/J	.	.
8CC#/L	4CC#\	8a#/L	4a#\	.
8FFF#/J)	.	8ee/J)	.	.
*v	*v	*	*	*
*	*v	*v	*
=24	=24	=24
*>1A1	*>1A1	*>1A1
*^	*^	*
(8CC#/L	2FFF#\	(8ff#/L	2a#\	.
8GGn/	.	8ee/	.	.
8FF#/	.	8ff#/	.	.
8EE/J)	.	8ggn/J)	.	.
(8BBB/ 8FF#/L	4r	8.dd#/L	4b\	.
16CC#/L	.	.	.	.
16DD#/JJ)	.	16b/Jk	.	.
*v	*v	*	*	*
*	*v	*v	*
=25:|!	=25:|!	=25:|!
*>1A2	*>1A2	*>1A2
*^	*^	*
(8CC#/L	2FFF#\	(8ff#/L	2a#\	.
8GGn/	.	8ee/	.	.
8FF#/	.	8ff#/	.	.
8EE/J)	.	8ggn/J)	.	.
(8BBB/ 8FF#/L	4r	8.dd#/L	4b\	.
8CC#/) 8EE/J	.	.	.	.
.	.	16b/Jk	.	.
*v	*v	*	*	*
*	*v	*v	*
=26	=26	=26
.	(bq/	.
4DD#'/ 4FF#'/	4.bb^\)	.
4D#\ 4F#\ 4B\	.	.
.	(8b\L	.
4E#\ 4G#\ 4c#\	8.b#\	.
.	16cc#\Jk)	.
=27!|:	=27!|:	=27!|:
*>1B	*>1B	*>1B
.	cc#q/	.
4FF#/	4.aa\	.
4F#\ 4A\	.	.
.	(8a\L	.
4D#\ 4F#\ 4B\	8.a#\	.
.	16b\Jk)	.
=28	=28	=28
.	(bq/	.
*	*^	*
4EE/	4.gg#\)	2r	.
4E\ 4G#\ 4B\	.	.	.
.	(8g#/L	.	.
4C#\ [4c#\	8.a/	[4e\	.
.	16ee/Jk)	.	.
*	*v	*v	*
=29	=29	=29
*^	*	*
8c#/L]	4D#\	8e/] 8ee/L	.
[8B/J	.	[8d#/ [8dd#/J	.
8B/L]	(4D#\	8d#/] 8dd#/L]	.
8A#/	.	8c#/ 8f##/	.
8G#/	8GG#\L	8B/ 8g#/	.
8F#/J	8FF#\J)	8An/ 8an/J	.
*v	*v	*	*
=30	=30	=30
.	(aaq/	.
4FF#/	4.aaa\)	.
4F#\ 4A\	.	.
.	(8gg#\L	<
4C#\ 4E\ 4A\	8.aa\	.
.	16ccc#\Jk)	.
=31	=31	=31
4DD#/	(8.aa#\L	<
.	16bb\Jk)	.
4D#\ 4F#\ 4A\ 4B\	(8.aa#\L	.
.	16bb\Jk)	.
4E\ 4G#\ 4B\	(8.aan\L	.
.	16gg#\Jk)	.
=32	=32	=32
4BB/	8ggg#\L	.
.	[8eee\J	.
4G#\ 4B\ 4e\	(16eee\LL]	.
.	16ddd#\J	.
.	[8ccc#\J)	.
4F#\ 4A\ 4B\ 4d#\	(16ccc#\LL]	.
.	16bb\J	.
.	[8aa\J)	.
=33	=33	=33
*>1B1	*>1B1	*>1B1
4EE/	8aa\L]	.
.	[8aa#\J	.
4E\ 4F#\ 4A\ 4B\ 4d#\	16aa#\LL]	.
.	(16bb\J	.
.	8ff#\J)	.
8E\ 8G#\ 8B\ 8e\L	(8.gg#\L	<
8D#\ 8F#\ 8B\ 8d#\J	.	.
.	16ff#\Jk)	.
=34	=34	=34
.	(ff#q/	.
4DD#/	4.bb\)	.
4D#\ 4F#\ 4B\	.	.
.	(8b\L	.
4E#\ 4G#\ 4c#\	8.b#\	.
.	16cc#\Jk)	.
=35:|!	=35:|!	=35:|!
*>1B2	*>1B2	*>1B2
4EE/	8aa\L	.
.	[8aa#\J	.
4E\ 4F#\ 4A\ 4B\ 4d#\	(16aa#\LL]	.
.	16bb\J	.
.	8ff#\J)	.
4E\ 4G#\ 4B\ 4e\	4gg#\	.
=36	=36	=36
*>Var2	*>Var2	*>Var2
*M3/4	*M3/4	*M3/4
16EE/LL	16r	.
16r	(16B/LL	p
16r	16g#/JJ)	.
(16E/JJ	16r	.
16G#\LL)	16r	.
16r	(16e/LL	.
16r	16B/JJ)	.
(16GG#\JJ	16r	.
16AA\LL)	16r	.
16r	(16c#/LL	.
16r	16f#/JJ)	.
(16A\JJ	16r	.
=37	=37	=37
16B\LL)	16r	.
16r	16d#/LL	.
16r	16F#/JJ	.
16BB\JJ	16r	.
16C#\LL	16r	.
16r	16E/LL	.
16r	16B/JJ	.
16c#\JJ	16r	.
16d#\LL	16r	.
16r	16B/LL	.
16r	16F#/JJ	.
16D#\JJ	16r	.
=38	=38	=38
16E\LL	16r	.
16r	16g#\LL	.
16r	16gg#\JJ	.
16e\JJ	16r	.
*clefG2	*	*
16g#/LL	16r	.
16r	16ee\LL	.
16r	16b\JJ	.
16G#/JJ	16r	.
16A#/LL	16r	.
16r	16cc#\LL	.
16r	16ff#\JJ	.
16a#/JJ	16r	.
=39	=39	=39
16b/LL	16r	.
16r	16dd#\LL	<
16r	16ff#\JJ	.
16f#/JJ	16r	.
16f#/LL	16r	.
16r	16aa#\LL	.
16r	16ee\JJ	.
16cc#/JJ	16r	.
16b/LL	16r	.
16r	16dd#\ 16ff#\LL	.
16r	16bb\JJ	.
16an/JJ	16r	.
=40	=40	=40
16g#\LL	16r	.
16r	16bb\LL	.
16r	16ee\JJ	.
16gg#\JJ	16r	.
16ee\LL	16r	.
16r	16gg#\LL	.
16r	16eee\JJ	.
16b\JJ	16r	.
16cc#\LL	16r	.
16r	16eee\LL	.
16r	16fff#\JJ	.
16a#\JJ	16r	.
=41	=41	=41
16a#\LL	16r	.
16r	16eee\LL	>
16r	16ddd#\JJ	.
16b\JJ	16r	.
16cc#\LL	16r	.
16r	16ddd#\LL	.
16r	16ccc#\JJ	.
16ee\JJ	16r	.
16dd#\LL	16r	.
16r	16bb\LL	.
16r	16aan\JJ	.
16ff#\JJ	16r	.
=42	=42	=42
16ddn\LL	16r	.
16r	16aa\LL	<
16r	16gg#\JJ	.
16ffn\JJ	16r	.
16cc#\LL	16r	.
16r	16gg#\LL	.
16r	16aa\JJ	.
16ee'\JJ	16r	.
16ccn\LL	16r	.
16r	16bb-\LL	.
16r	16eee\JJ	.
16ggn\JJ	16r	.
=43	=43	=43
16ccn\LL	16r	.
16r	16b-\ 16ee\LL	>
16r	16a\ 16ffn\JJ	.
16cccn\JJ	16r	.
16cc\LL	16r	.
16r	16b-\ 16ggn\LL	.
16r	16gn\ 16ee\JJ	.
16ccc\JJ	16r	.
16bbn\LL	16r	.
16r	16bbn\LL	.
16r	16bn\JJ	p
16b\JJ	16r	.
*clefF4	*	*
=44	=44	=44
8r	(8g#/L	.
8BB\ 8E\ 8G#\L	8e/)	.
8BB\ 8E\ 8G#\	8e/	.
8BB\ 8E\ 8G#\	8e/J	.
8BB\ 8E\ 8G#\	(8.e/L	.
8BB\ 8E\ 8G#\J	.	.
.	32d#/LL	.
.	32e/JJJ)	.
=45	=45	=45
*	*^	*
8BB\ 8F#\ 8A\L	8a/L	(2e\	.
8BB\ 8F#\ 8A\	8f#/	.	.
8BB\ 8F#\ 8A\	8f#/	.	.
8BB\ 8F#\ 8A\	8f#/J	.	.
8BB\ 8F#\ 8A\	8.f#/L	4d#\)	.
8BB\ 8F#\ 8A\J	.	.	.
.	32e#/LL	.	.
.	32f#/JJJ	.	.
=46	=46	=46	=46
8BB\ 8G#\ 8B\L	8b/L	(2f#'\	.
8BB\ 8G#\ 8B\	8g#/	.	.
8BB\ 8G#\ 8B\	8g#/	.	.
8BB\ 8G#\ 8B\	8g#/J	.	.
8BB\ 8G#\ 8B\	8.g#/L	4e\)	.
8BB\ 8G#\ 8B\J	.	.	.
.	32f#/LL	.	.
.	32g#/JJJ	.	.
=47	=47	=47	=47
8BB\ 8A\L	2g#\	8c#/ (8cc#/L	.
8BB\ 8A\	.	8c#/ 8a/)	.
8BB\ 8A\	.	8c#/ 8a/	.
8BB\ 8A\J	.	8c#/ 8a/J	.
8B\ 8d#\L	4f#\	(8.a/L	.
8B\ 8d#\J	.	.	.
.	.	32g#/LL	.
.	.	32a/JJJ)	.
*	*v	*v	*
=48	=48	=48
16BB\LL	16r	.
16r	16g#\ 16b\ 16gg#\LL	.
16G#\ 16B\ 16e\JJ	16r	.
16r	16g#\ 16b\ 16ee\JJ	.
16G#\ 16B\ 16e\LL	16r	.
16r	16g#\ 16b\ 16dd#\LL	.
16G#\ 16B\ 16e\JJ	16r	.
16r	16g#\ 16b\ 16ee\JJ	.
16G#\ 16B\ 16e\LL	16r	.
16r	16g#\ 16b\ 16dd#\LL	.
16G#\ 16B\ 16e\JJ	16r	.
16r	16g#\ 16b\ 16ee\JJ	.
=49	=49	=49
16BB\LL	16r	.
16r	16a\ 16dd#\ 16ff#\ 16aa\LL	.
16F#\ 16A\ 16B\ 16d#\JJ	16r	.
16r	16a\ 16dd#\ 16ff#\JJ	.
16F#\ 16A\ 16B\ 16d#\LL	16r	.
16r	16a\ 16dd#\ 16ee#\LL	.
16F#\ 16A\ 16B\ 16d#\JJ	16r	.
16r	16a\ 16dd#\ 16ff#\JJ	.
16F#\ 16A\ 16B\ 16d#\LL	16r	.
16r	16a\ 16dd#\ 16ee#\LL	.
16F#\ 16A\ 16B\ 16d#\JJ	16r	.
16r	16a\ 16dd#\ 16ff#\JJ	<
=50	=50	=50
16BB\LL	16r	.
16r	16b\ 16ee\ 16gg#\ 16bb\LL	.
16G#\ 16B\ 16e\JJ	16r	.
16r	16b\ 16ee\ 16gg#\JJ	.
16G#\ 16B\ 16e\LL	16r	.
16r	16b\ 16ee\ 16gg#\LL	.
16G#\ 16B\ 16e\JJ	16r	.
16r	16b\ 16ee\ 16bb\JJ	.
16C#\LL	16r	.
16r	16a#\ 16ee\ 16ggn\ 16aa#\LL	.
16Gn\ 16A#\ 16e\JJ	16r	.
16r	16ee\ 16aa#\ 16eee\JJ	.
=51	=51	=51
16Cn\LL	16r	.
16r	16ee\ 16aa#\ 16eee\LL	>
16Gn\ 16A#\ 16e\JJ	16r	.
16r	16ff#\ 16aa#\ 16fff#\JJ	.
16G\ 16A#\ 16e\LL	16r	.
16r	16ggn\ 16aa#\ 16gggn\LL	.
16G\ 16A#\ 16e\JJ	16r	.
16r	16ee\ 16aa#\ 16eee\JJ	.
16C\ 16G\LL	16r	.
16r	16ee\ 16aa#\ 16eee\LL	p
16BB\ 16B\JJ	16r	.
16r	16dd#\ 16bb\ 16ddd#\JJ	.
*clefG2	*	*
=52	=52	=52
16d#/	16r	.
16r	16ff#\LL	pp
16r	16bb\JJ	.
16b/LL	16r	.
16d#/JJ	16r	.
16r	16bb\LL	.
16r	16ff#\JJ	.
16b/LL	16r	.
16e#/JJ	16r	.
16r	16bb\LL	.
16r	16ccc#\JJ	.
16g#/	16r	.
=53	=53	=53
16f#/LL	16r	.
16r	16aa\LL	.
16r	16ccc#\JJ	.
16cc#/JJ	16r	.
16en/LL	16r	.
16r	16ccc#\LL	.
16r	16aa#\JJ	.
16gn/JJ	16r	.
16ccn/LL	16r	.
16r	16aan\LL	.
16r	16bb\JJ	.
16d#/JJ	16r	.
=54	=54	=54
16e/LL	16r	.
16r	16gg#\LL	.
16r	16bb\JJ	.
16ee/JJ	16r	.
16dd#/LL	16r	.
16r	16ggg#\LL	.
16r	16bb\JJ	<
16d#/JJ	16r	.
16c##/LL	16r	.
16r	16bb\LL	.
16r	16ggg#\JJ	.
16cc##/JJ	16r	.
=55	=55	=55
16dd#/LL	16r	.
16r	16bb\LL	.
16r	16ddd#\JJ	.
16d#/JJ	16r	.
16e/LL	16r	.
16r	16gg#\LL	>
16r	16a#\ 16ff##\JJ	.
16d#/JJ	16r	.
16G#/LL	16r	.
16r	16a#\ 16ff##\LL	.
16r	16b\ 16gg#\JJ	.
16F#/JJ	16r	.
=56	=56	=56
16f#\LL	16r	.
16r	16gg#\LL	<
16r	16aan\JJ	.
16ee#\JJ	16r	.
16ff#\LL	16r	.
16r	16aaa\LL	.
16r	16aa\JJ	.
16cc#\JJ	16r	.
16ff#\LL	16r	.
16r	16aa\LL	.
16r	16ccc#\JJ	.
16cc#\JJ	16r	.
=57	=57	=57
16ff#\LL	16r	.
16r	16aa#\LL	.
16r	16bb\JJ	.
16dd#\JJ	16r	.
16aan\LL	16r	.
16r	(16bb\LL	.
16r	16b\JJ)	.
16dd#\JJ	16r	.
16bb\LL	16r	.
16r	16aan\LL	.
16r	16gg#\JJ	.
16ee\JJ	16r	.
=58	=58	=58
16bb\LL	16r	.
16r	16gg#\ 16eee\LL	.
16r	16eee\ 16ggg#\JJ	.
16b\JJ	16r	.
16b#\LL	16r	.
16r	(16gg#\ 16eee\LL	.
16r	16ee\) 16gg#\JJ	.
16cc#\JJ	16r	.
16cc##\LL	16r	.
16r	16gg#\ 16bb\LL	.
16r	16ff#\ 16aa\JJ	.
16dd#\JJ	16r	.
=59	=59	=59
16ee\LL	16r	.
16r	16ff#\ 16aa\LL	p
16r	16aa\ 16fff#\JJ	.
*clefF4	*	*
16d#\JJ	16r	.
16e\LL	16r	.
16r	16aa\ 16fff#\LL	.
16r	16ff#\ 16aa\JJ	.
16D#\JJ	16r	.
16E\LL	16r	.
16r	16ff#\ 16aa\LL	.
16r	16b\ 16gg#\JJ	.
16Dn\JJ	16r	.
=60	=60	=60
(8dn\L	8ddn/L	.
8Dn\)	8dn/	.
8D\	8d/	.
8D\J	8d/J	.
8.D\L	8.d/L	.
32C#\LL	32c#/LL	.
32D\JJJ	32d/JJJ	.
=61	=61	=61
*	*^	*
8C#\ 8E#\ 8G#\L	8b/L	(4dn\	.
8C#\ 8E#\ 8G#\	8g#/	.	.
8C#\ 8E#\ 8G#\	8g#/	4c#\	.
8C#\ 8E#\ 8G#\	8g#/J	.	.
8C#\ 8E#\ 8G#\	8.g#/L	4B\	.
8C#\ 8E#\ 8G#\J	.	.	.
.	32f#/LL	.	.
.	32g#/JJJ	.	.
=62	=62	=62	=62
8C#\ 8F#\ 8A\L	8cc#/L	4g#\	.
8C#\ 8F#\ 8A\	8a/	.	.
8C#\ 8F#\ 8A\	8a/	4f#\	.
8C#\ 8F#\ 8A\	8a/J	.	.
8C#\ 8E\ 8A\	8.a/L	4e\)	.
8C#\ 8E\ 8A\J	.	.	.
.	32g#/LL	.	.
.	32a/JJJ	.	.
=63	=63	=63	=63
8BB\ 8E\ 8G#\L	8gg#/L	8g#\L	.
8BB\ 8E\ 8G#\J	8ee/	8g#\J	.
8AA#\ 8E\ 8F##\L	8ee/	8f##\L	.
8AA#\ 8D#\ 8F##\J	8dd#/J	8f##\J	.
8GG#\ 8D#\ 8G#\L	(16.dd#/LL	8b\L	.
.	64cc#/LL	.	.
.	64dd#/JJJJ	.	.
8GG#\ 8BB\ 8E\J	(16.ee/LL)	8b\J	.
.	64dd#/LL	.	.
.	64ee/JJJJ)	.	<
*	*v	*v	*
=64	=64	=64
16FF#\ 16F#\LL	16r	.
16r	16a\ 16cc#\ 16ee\LL	.
16F#\ 16A\ 16c#\ 16e\JJ	16r	.
16r	16a\ 16aa\JJ	.
16F#\ 16A\ 16c#\ 16e\LL	16r	.
16r	16g#\ 16gg#\LL	.
16F#\ 16A\ 16c#\ 16e\JJ	16r	.
16r	16a\ 16aa\JJ	.
16F#\ 16A\ 16c#\ 16e\LL	16r	.
16r	16b#\ 16bb#\LL	.
16F#\ 16A\ 16c#\ 16e\JJ	16r	.
16r	16cc#\ 16ccc#\JJ	.
=65	=65	=65
16FF#\LL	16r	.
16r	16cc#\ 16ccc#\LL	.
16F#\ 16A\ 16B\ 16d#\JJ	16r	.
16r	16bn\ 16bbn\JJ	.
16F#\ 16A\ 16B\ 16d#\LL	16r	.
16r	16cc#\ 16ccc#\LL	.
16F#\ 16A\ 16B\ 16d#\JJ	16r	.
16r	16b\ 16bb\JJ	.
16F#\ 16A\ 16B\ 16d#\LL	16r	.
16r	16a\ 16aa\LL	.
16G#\ 16B\ 16e\JJ	16r	.
16r	16g#\ 16gg#\JJ	.
=66	=66	=66
16C#\LL	16r	.
16r	16ff#\ 16fff#\LL	p
16G#\ 16c#\ 16e\JJ	16r	.
16r	16ee\ 16eee\JJ	.
16BB\LL	16r	.
16r	16gg#\ 16ggg#\LL	.
16G#\ 16B\ 16e\JJ	16r	.
16r	16g#\ 16gg#\JJ	.
16BB/LL	16r	.
*clefG2	*	*
16r	16ddn\ 16ee#\ 16gg#\ 16bb\LL	.
16cn/ 16d#/ 16f#/ 16a/JJ	16r	.
16r	16ccn\ 16dd#\ 16ff#\ 16aa\JJ	<
=67	=67	=67
16B/ 16d#/ 16f#/ 16a/LL	16r	.
16r	16b\ 16dd#\ 16ff#\ 16aa\LL	.
16cn/ 16d#/ 16f#/ 16a/JJ	16r	.
16r	16ccn\ 16dd#\ 16ff#\ 16aa\JJ	.
16d#\ 16f#\ 16a\LL	16r	.
16r	16b\ 16dd#\ 16ff#\ 16aa\LL	>
*clefF4	*	*
16C#\ 16F#\ 16A\JJ	16r	.
16r	16d#\ 16f#\ 16a\JJ	.
16BBB\ 16BB\LL	16r	.
16r	16d#/ 16f#/ 16a/LL	p
16EE\ 16E\JJ	16r	.
16r	16B/ 16e/ 16g#/JJ	.
=68	=68	=68
*>Var3	*>Var3	*>Var3
*M2/4	*M2/4	*M2/4
16G#\LL	8e/	f
16B\	.	.
16A\	8r	.
16G#\JJ	.	.
16E\LL	8g#/	.
16G#\	.	.
16F#\	8r	.
16E\JJ	.	.
=69	=69	=69
16D#\LL	8b\	.
16F#\	.	.
16E\	8r	.
16D#\JJ	.	.
16BB\LL	8dd#\	.
16D#\	.	.
16C#\	8r	.
16BB\JJ	.	.
=70	=70	=70
16GG#/LL	8ee\	.
16BB/	.	.
16AA/	8r	.
16GG#/JJ	.	.
16EE/LL	8gg#\	.
16GG#/	.	.
16FF#/	8r	.
16EE/JJ	.	.
=71	=71	=71
16CC#/LL	8aa#'\L	.
16EE/	.	.
16DD#/	8aa#'\	.
16CC#/JJ	.	.
16BBB/LL	8bb'\J	.
16CC#/	.	.
16DDn/	8r	.
16DD#/JJ	.	.
=72	=72	=72
8EE/	16gg#\LL	f
.	16bb\	.
8r	16aa\	.
.	16gg#\JJ	.
8GG#/	16ee\LL	.
.	16gg#\	.
8r	16ff#\	.
.	16ee\JJ	.
=73	=73	=73
8BB/	16dd#\LL	.
.	16ff#\	.
8r	16ee\	.
.	16dd#\JJ	.
8D#\	16b\LL	.
.	16dd#\	.
8r	16cc#\	.
.	16b\JJ	.
=74	=74	=74
8E\	16g#/LL	.
.	16b/	.
8r	16a/	.
.	16g#/JJ	.
8G#\	16e/LL	.
.	16g#/	.
8r	16f#/	.
.	16e/JJ	.
=75	=75	=75
8A#'\L	16gn/LL	.
.	16e/	.
8A#'\	16d#/	.
.	16e/JJ	.
8B'\J	16d#/LL	.
.	16f#/	.
8r	16b/	.
.	16d#/JJ	.
=76	=76	=76
16G#\LL	8e'/L	p
16B\	.	.
16An\	8f#'/	<
16G#\JJ	.	.
16F#\LL	8g#/	.
16E\	.	.
16D#\	8a'/J	.
16E\JJ	.	.
=77	=77	=77
16D#\LL	8b'\L	.
16F#\	.	.
16E\	8cc#'\	.
16D#\JJ	.	.
16C#/LL	8cc##'\	.
16BB/	.	.
16AA#/	8dd#'\J	.
16AAn/JJ	.	.
=78	=78	=78
16GG#/LL	8ee'\L	.
16BB/	.	.
16AA/	8ff#'\	.
16GG#/JJ	.	.
16FF#/LL	8ff##'\	.
16EE/	.	.
16DD#/	8gg#'\J	.
16EE/JJ	.	.
=79	=79	=79
16DD#/LL	8aa'\L	f
16CC#/	.	.
16FF#/	8aa#'\	.
16EE/JJ	.	.
16DD#/LL	8bb'\	.
16BBB/	.	.
16CC#/	8aan'\J	.
16DD#/JJ	.	.
=80	=80	=80
8EE'/L	16gg#\LL	p
.	16bb\	.
8FF#'/	16aa\	.
.	16gg#\JJ	.
8GG#'/	16ff#\LL	.
.	16ee\	.
8AA'/J	16dd#\	.
.	16ee\JJ	.
=81	=81	=81
8BB'/L	16dd#\LL	.
.	16ff#\	.
8C#'/	16ee\	.
.	16dd#\JJ	.
8Dn'/	16cc#\LL	.
.	16b\	.
8D#'/J	16a#\	.
.	16an\JJ	.
=82	=82	=82
8E'\L	16g#/LL	.
.	16b/	.
8F#'\	16a/	.
.	16g#/JJ	.
8G#'\	16f#/LL	.
.	16e/	.
8A'\J	16d#/	.
.	16e/JJ	.
=83	=83	=83
8A#'\L	16gn/LL	f
.	16e/	.
8B'\	16g/	.
.	16e/JJ	.
8cn'\	16a#/LL	.
.	16e/	.
8B'\J	16b/	.
.	16d#/JJ	.
=84	=84	=84
16G#\LL	8b'\L	p
16B\	.	.
16A\	8b'\	.
16G#\JJ	.	.
16F#\LL	8b'\	.
16E#\	.	.
16D#\	8cc#'\J	.
16E#\JJ	.	.
=85	=85	=85
16F#\LL	8b'/L	.
16A\	.	.
16G#\	8a'/	.
16F#\JJ	.	.
16En\LL	8a'/	.
16D#\	.	.
16C#\	8b'/J	.
16D#\JJ	.	.
=86	=86	=86
16E\LL	8a'/L	.
16G#\	.	.
16F#\	8g#'/	.
16E\JJ	.	.
16D#\LL	8g#'/	.
16C#\	.	.
16BB#\	8a#'/J	.
16C#\JJ	.	.
=87	=87	=87
16D#/LL	8g#/L	<
16C#/	.	.
16BBn/	8f##/	.
16AA#/JJ	.	.
16GG#/LL	8g#/	.
16FF#/	.	.
16EE/	[8B/ [8g#/ [8b/J	.
16DDn/JJ	.	.
=88	=88	=88
8CC#/	16B/] 16g#/] 16b/LL]	f
.	16an/	.
8AA'\ 8A'\L	16cc#/	.
.	16b/JJ	.
8AA'\ 8A'\	16a/LL	.
.	16g#/	.
8C#'\ 8c#'\J	16f#/	.
.	16e/JJ	.
=89	=89	=89
8C#'\ 8c#'\L	16d#/LL	.
.	16B/	.
8BB'\ 8B'\	16c#/	.
.	16d#/JJ	.
8AA'\ 8A'\	16e/LL	.
.	16f#/	.
8GG#'\ 8G#'\J	16g#/	.
.	16a/JJ	.
=90	=90	=90
8GG#'\ 8G#'\L	16b\LL	.
.	16a#\	.
8FF#'\ 8F#'\	16b\	.
.	16cc#\JJ	.
8FF#'\ 8F#'\	16dd#\LL	.
.	16ee\	.
8GG#'\ 8G#'\J	16ff#\	.
.	16ee\JJ	.
=91	=91	=91
8AA'\ 8A'\L	16dd#\LL	.
.	16b\	.
8BB'\ 8B'\	16cc#\	.
.	16dd#\JJ	.
8GG#'\ 8G#'\	16ee\LL	.
.	16dd#\	.
*clefG2	*	*
8B'\ 8b'\J	16ee\	.
.	16ff#\JJ	.
=92	=92	=92
8B'/ 8b'/L	16gg#\LL	p
.	16bb\	.
8B'/ 8b'/	16aa\	.
.	16gg#\JJ	.
8B'/ 8b'/	16ff#\LL	.
.	16ee#\	.
8c#'/ 8cc#'/J	16dd#\	.
.	16ee#\JJ	.
=93	=93	=93
8B'/ 8b'/L	16ff#\LL	.
.	16aa\	.
8A'/ 8a'/	16gg#\	.
.	16ff#\JJ	.
8A'/ 8a'/	16een\LL	.
.	16dd#\	.
8B'/ 8b'/J	16cc#\	.
.	16dd#\JJ	.
=94	=94	=94
8A'/ 8a'/L	16ee\LL	.
.	16gg#\	.
8G#'/ 8g#'/	16ff#\	.
.	16ee\JJ	.
8G#'/ 8g#'/	16dd#\LL	.
.	16cc#\	.
8A'/ 8a'/J	16b#\	.
.	16cc#\JJ	.
=95	=95	=95
8G#'/ 8g#'/L	16dd#\LL	<
.	16a#\	.
8F##'/ 8f##'/	16dd#\	.
.	16cc#\JJ	.
8G#'/ 8g#'/J	16bn\LL	.
.	16dd#\	.
*clefF4	*	*
[8B\	16ee\	.
.	16ddn'\JJ	.
=96	=96	=96
16B\LL]	8cc#\	f
16A\	.	.
16c#\	8a'\ 8aa'\L	.
16B\JJ	.	.
16A\LL	8a'\ 8aa'\	.
16G#\	.	.
16F#\	8cc#'\ 8ccc#'\J	.
16E\JJ	.	.
=97	=97	=97
16D#\LL	8cc#'\ 8ccc#'\L	.
16BB\	.	.
16C#\	8b'\ 8bb'\	.
16D#\JJ	.	.
16E\LL	8a'\ 8aa'\	.
16F#\	.	.
16G#\	8g#'\ 8gg#'\J	.
16A\JJ	.	.
*clefG2	*	*
=98	=98	=98
16B/LL	8g#'\ 8gg#'\L	.
16A#/	.	.
16B/	8f#'\ 8ff#'\	.
16c#/JJ	.	.
16d#/LL	8f#'\ 8ff#'\	.
16e/	.	.
16f#/	8g#'\ 8gg#'\J	.
16e/JJ	.	.
=99	=99	=99
16d#/LL	8a'\ 8aa'\L	.
16B/	.	.
16c#/	8b'\ 8bb'\	.
16d#/JJ	.	.
16e/LL	8g#'\ 8gg#'\J	.
16d#/	.	.
16e/	[8b\	.
16f#/JJ	.	.
=100	=100	=100
*>4I	*>4I	*>4I
*M9/8	*M9/8	*M9/8
*^	*	*
4g#/	4.r	(16b\LL]	.
.	.	16dd#\	.
.	.	16ee\	.
.	.	16g#\	.
8r	.	16a\	.
.	.	16b\JJ)	.
*v	*v	*	*
*clefF4	*	*
*^	*	*
(16G#/LL	4r	[4.e/	.
16A/	.	.	.
16B/	.	.	.
16E/	.	.	.
16F#/	8r	.	.
[16G#/JJ)	.	.	.
4.G#/]	4BB\	(8e/L]	.
.	.	8g#/	.
.	8r	8f#/J)	.
*v	*v	*	*
=101!|:	=101!|:	=101!|:
*>4A	*>4A	*>4A
*^	*^	*
(16A/LL	4r	4r	(4.e\	.
16B/	.	.	.	.
16c#/	.	.	.	.
16F#/	.	.	.	.
16G#/	8r	8r	.	.
16A/JJ)	.	.	.	.
4.BB/	(16FF#\LL	4.a/	4.d#\)	.
.	16GG#\	.	.	.
.	16AA\	.	.	.
.	16FF#\	.	.	.
.	16GG#\	.	.	.
.	16AA\JJ)	.	.	.
4BBB/	4.r	(8a/L	16f#\LL	.
.	.	.	16g#\	.
.	.	8cc#/	16a\	.
.	.	.	16d#\	.
8r	.	8b/J)	16e\	.
.	.	.	16f#\JJ	.
=102	=102	=102	=102	=102
(16B\LL	4.r	(4a/	4.e\	.
16d#\	.	.	.	.
16e\	.	.	.	.
16G#\	.	.	.	.
16A\	.	8g#/)	.	.
16B\JJ)	.	.	.	.
4.r	4BB/	[4.ee/	(16g#\LL	.
.	.	.	16a\	.
.	.	.	16b\	.
.	.	.	16e\	.
.	8r	.	16f#\	.
.	.	.	16g#\JJ)	.
(16G#\LL	4B/	8ee/L]	4.r	.
16A\	.	.	.	.
16B\	.	8gg#/	.	.
16E\	.	.	.	.
16F#\	8r	8ff#/J	.	.
16G#\JJ)	.	.	.	.
=103	=103	=103	=103	=103
4BB/	4.r	4.ee/	(16f#\LL	.
.	.	.	16g#\	.
.	.	.	16a\	.
.	.	.	16f#\	.
8r	.	.	16g#\	.
.	.	.	16a\JJ)	.
4B/	(16F#\LL	[4.aa/	4.dd#\	.
.	16G#\	.	.	.
.	16A\	.	.	.
.	16F#\	.	.	.
8r	16G#\	.	.	.
.	16A\JJ)	.	.	.
4.r	(16BB\LL	8aa/L]	4.ff#\	.
.	16C#\	.	.	.
.	16D#\	8ccc#/	.	.
.	16BB\	.	.	.
.	16C#\	8bb/J	.	.
.	16D#\JJ)	.	.	.
*v	*v	*	*	*
=104	=104	=104	=104
(16BB/LL	4aa/	(4ff#\	.
16D#/	.	.	.
16E/	.	.	.
16GG#/	.	.	.
16AA/	8gg#/	8ee\)	.
16BB/JJ)	.	.	.
[4.EE/	16gg#/LL	4r	.
.	16aa/	.	.
.	16bb/	.	.
.	16ee/	.	.
.	16ff#/	8r	.
.	16gg#/JJ	.	.
(8EE/L]	8b/	16g#\LL	.
.	.	16a\	.
8GG#/	8r	16b\	.
.	.	16e\	.
8FF#/J)	8r	16f#\	.
.	.	16g#\JJ	.
=105	=105	=105	=105
*^	*	*	*
(4EE/	4.r	4B\	(16a/LL	.
.	.	.	16b/	.
.	.	.	16cc#/	.
.	.	.	16f#/	.
8DD#/)	.	8r	16g#/	.
.	.	.	16a/JJ)	.
([4.AA/	8BBB\L	(16ff#\LL	2.r	.
.	.	16gg#\	.	.
.	8CC#\	16aa\	.	.
.	.	16ff#\	.	.
.	8BBB\J	16gg#\	.	.
.	.	16aa\JJ	.	.
8AA/L]	8AAA\L	16bb\LL	.	.
.	.	16ccc#\	.	.
8C#/	8CC#\	16ddd#\	.	.
.	.	16bb\	.	.
8BB/J)	8BBB\J	16ccc#\	.	.
.	.	16ddd#\JJ)	.	.
*	*	*v	*v	*
=106	=106	=106	=106
(4AAA/ 4AA/	2.r	(16ee\LL	.
.	.	16ff#\	.
.	.	16gg#\	.
.	.	16ee\	.
8GGG#/) 8GG#/	.	16ff#\	.
.	.	16gg#\JJ	.
(4FF#/ 4F#/	.	16gg#\LL	.
.	.	16aa\	.
.	.	16bb\	.
.	.	16gg#\	.
8EE/) 8E/	.	16aa\	.
.	.	16bb\JJ)	.
16E/LL	4C#\	4b\ (4bb\	.
16F#/	.	.	.
16Gn/	.	.	.
16E/	.	.	.
16F#/	8Cn\	8a#\ 8aa#\)	.
16G/JJ	.	.	.
*v	*v	*	*
=107	=107	=107
*>4A1	*>4A1	*>4A1
*^	*	*
16Cn/LL	(4.Cn\	(16bb-\LL	.
16E/	.	16ggn\	.
16Gn/	.	16ee\	.
16B-/	.	16b-\	.
16G/	.	16ee\	.
16E/JJ	.	16gg\JJ	.
16G/LL	4.C\	16bb-\LL	.
16E/	.	16gg\	.
16Fn/	.	16aan\	.
16A/	.	16ffn\	.
16B-/	.	16gg\	.
16G/JJ)	.	16ee\JJ)	.
4.r	8C\L	8ee\ (8aa#\L	.
.	8BBn\	8dd#\ 8bbn\	.
.	8AA\J	[8b-\J)	.
=108	=108	=108	=108
4GG#/	4.r	(16b-\LL]	.
.	.	16dd#\	.
.	.	16ee\	.
.	.	16g#\	.
8r	.	16a\	.
.	.	16b\JJ)	.
(16G#\LL	4.r	[4.e/	.
16A\	.	.	.
16B\	.	.	.
16E\	.	.	.
16F#\	.	.	.
[16G#\JJ)	.	.	.
4.G#/]	4BB\	(8e/L]	.
.	.	8g#/	.
.	8r	8f#/J)	.
*v	*v	*	*
=109:|!	=109:|!	=109:|!
*>4A2	*>4A2	*>4A2
*^	*	*
16Cn/LL	4.Cn\	(16bb-\LL	.
16E/	.	16ggn\	.
16Gn/	.	16ee\	.
16B-/	.	16b-\	.
16G/	.	16ee\	.
16E/JJ	.	16gg\JJ	.
16G/LL	4.C\	16bb-\LL	.
16E/	.	16gg\	.
16Fn/	.	16aan\	.
16A/	.	16ffn\	.
16B-/	.	16gg\	.
16G/JJ	.	16ee\JJ)	.
4.r	(8C\L	8ee\ (8aa#\L	.
.	8BBn\)	8dd#\ 8bbn\)	.
.	8Bn\J	8ddn\J	.
*v	*v	*	*
=110	=110	=110
16C#\LL	16ddn/LL	pp
16E#\ 16G#\ 16Bn\	16e#/ 16g#/ 16bn/	.
16C#\	16dd/	.
16E#\ 16G#\ 16B\	16e#/ 16g#/ 16b/	.
16C#\	16dd/	.
16E#\ 16G#\ 16B\JJ	16e#/ 16g#/ 16b/JJ	.
16C#\LL	(16bb#\LL	.
16E#\ 16G#\ 16B\	16ccc#\	.
16C#\	16dddn\	.
16E#\ 16G#\ 16B\	16ccc#\J	.
16C#\	8ddd\J)	.
16E#\ 16G#\ 16B\JJ	.	.
16C#\LL	16cc#/LL	.
16F#\ 16A\	16f#/ 16a/	.
16C#\	16cc#/	.
16F#\ 16A\	16f#/ 16a/	.
16C#\	16cc#/	.
16F#\ 16A\JJ	16f#/ 16a/JJ	.
=111!|:	=111!|:	=111!|:
*>4B	*>4B	*>4B
16BB\LL	16cc#/LL	.
16D#\ 16F#\ 16A\	16d#/ 16f#/ 16a/	.
16BB\	16cc#/	.
16D#\ 16F#\ 16A\	16d#/ 16f#/ 16a/	.
16BB\	16cc#/	.
16D#\ 16F#\ 16A\JJ	16d#/ 16f#/ 16a/JJ	.
16BB\LL	(16bbn\LL	.
16D#\ 16F#\ 16A\	16bb#\	.
16BB\	16ccc#\	.
16D#\ 16F#\ 16A\	16bb#\J	.
16BB\	8ccc#\J)	.
16D#\ 16F#\ 16A\JJ	.	.
16BB\LL	16bn/LL	.
16E\ 16G#\	16e/ 16g#/	.
16BB\	16b/	.
16E\ 16G#\	16e/ 16g#/	.
16BB\	16b/	.
16E\ 16G#\JJ	16e/ 16g#/JJ	.
=112	=112	=112
16AA#/LL	16ee/LL	.
16C#/ 16E/ 16F##/	16e/ 16f##/ 16cc#/	.
16AA#/	16ee/	<
16C#/ 16E/ 16F##/	16e/ 16f##/ 16cc#/	.
16AA#/	16ee/	.
16C#^/ 16E^/ 16F##^/JJ	16e^/ 16f##^/ 16cc#^/JJ	.
16AA#/LL	16ee/LL	.
16C#/ 16E/ 16F##/	16e/ 16f##/ 16cc#/	.
16AA#/	16ee/	.
16C#/ 16E/ 16F##/	16e/ 16f##/	.
16AA#/	16ee/	.
16C#^/ 16E^/ 16F##^/JJ	16e^/ 16f##^/ 16cc#^/JJ	.
16AA#/LL	16ee/LL	.
16C#/ 16E/ 16F##/	16e/ 16f##/ 16cc#/	.
16AA#/	16ee/	.
16C#/ 16E/ 16F##/	16e/ 16f##/ 16cc#/	.
16AA#/	16dd#/	.
16C#/ 16D#/ 16F##/JJ	16d#/ 16f##/ 16cc#/JJ	.
=113	=113	=113
16GG#/LL	16dd#/LL	f
16BB/ 16D#/ 16G#/	16d#/ 16g#/ 16b/	.
16GG#/	16dd#/	.
16BB/ 16D#/ 16G#/	16d#/ 16g#/ 16b/	.
16GG#/	16dd#/	.
16BB/ 16D#/ 16G#/JJ	16d#/ 16g#/ 16b/JJ	.
16GG#/LL	16dd#/LL	.
16C#/ 16D#/ 16F##/	16d#/ 16f##/ 16a#/	.
16GG#/	16dd#/	.
16C#/ 16D#/ 16F##/	16d#/ 16f##/ 16a#/	.
16GG#/	16dd#/	.
16C#/ 16D#/ 16F##/JJ	16d#/ 16f##/ 16a#/JJ	.
16GG#/LL	16dd#/LL	.
16BB/ 16D#/ 16G#/	16d#/ 16g#/ 16b/	f
16GG#/	16dd#/	.
16BB/ 16D#/ 16G#/	16d#/ 16g#/ 16b/	.
16GG#/	16ee/	.
16BB/ 16E/ 16G#/JJ	16e/ 16g#/ 16b/JJ	.
=114	=114	=114
*^	*^	*
16FF#/LL	2.r	(16aan/LL	4r	ff
16AA/ 16C#/ 16E/	.	16bb/	.	.
16FF#/	.	16ccc#/	.	.
16AA/ 16C#/ 16E/	.	16ff#/	.	.
16FF#/	.	16gg#/	8r	.
16AA/ 16C#/ 16E/JJ	.	16aa/JJ)	.	.
16FF#/LL	.	4cc#/	(16a\LL	.
16AA/ 16C#/ 16E/	.	.	16b\	.
16FF#/	.	.	16cc#\	.
16AA/ 16C#/ 16E/	.	.	16a\	.
16FF#/	.	8r	16b\	.
16AA/ 16C#/ 16E/JJ	.	.	16cc#\JJ)	.
(16F#/LL	4.E\	16a/LL	4c#\	>
16G#/	.	16b/	.	.
16A/	.	16cc#/	.	.
16F#/	.	16a/	.	.
16G#/	.	16b/	8r	.
16A/JJ)	.	16cc#/JJ	.	.
*v	*v	*	*	*
=115	=115	=115	=115
(16D#\LL	(4cc#/	16f#\LL	.
16E\	.	16g#\	.
16F#\	.	16a\	.
16D#\	.	16f#\	.
16E\	8b/)	16g#\	.
16F#\JJ)	.	16a\JJ	.
(16D#/LL	16ff#/LL	4.b\	.
16C#/	16gg#/	.	.
16BB/	16aa/	.	.
16AA/	16ff#/	.	.
16GG#/	16gg#/	.	.
16FF#/JJ)	16aa/JJ	.	.
(16E/LL	(16gg#/LL	8b\	.
16D#/	16aa/	.	.
16C#/	16bb/	8r	.
16BB/	16ccc#/	.	.
16AA/	16ddd#/	8r	.
16GG#/JJ)	16eee/JJ)	.	.
=116	=116	=116	=116
*^	*	*	*
4.r	(16BB\LL	(16eee/LL	4r	.
.	16C#\	16ddd#/	.	.
.	16D#\	16ccc#/	.	.
.	16E\	16bb/	.	.
.	16F#\	16aa/	8r	.
.	16G#\JJ)	16gg#/JJ)	.	.
(16E/LL	4.BB\	4.bb/	(16gg#\LL	.
16F#/	.	.	16ff#\	.
16G#/	.	.	16ee\	.
16E/	.	.	16gg#\	.
16F#/	.	.	16ff#\	.
16G#/JJ)	.	.	16ee\JJ)	.
(16F#/LL	4.BB\	4.aa/	(16ff#\LL	.
16G#/	.	.	16ee\	.
16A/	.	.	16dd#\	.
16F#/	.	.	16ff#\	.
16G#/	.	.	16ee\	.
16A/JJ)	.	.	16dd#\JJ)	.
*v	*v	*	*	*
*	*v	*v	*
=117	=117	=117
*>4B1	*>4B1	*>4B1
16BBB/LL	16aa/LL	.
16DD#/	16ff#/	.
16FF#/	16dd#/	.
16AA/	16b/	<
16BB/	16a/	.
16D#/JJ	16f#/JJ	.
16F#\LL	16d#/LL	.
16A\	16B/	.
16F#\	16d#/	.
16D#\	16f#/	.
16BB\	16a/	.
16AA\JJ	16b/JJ	.
(16FF#/LL	(16dd#\LL	>
16BBB/J	16bb\J	.
8EE/J)	8gg#\J)	.
16C#\LL	16ddn/LL	pp
16E#\ 16G#\ 16B\JJ	16e#/ 16g#/ 16b/JJ	.
=118	=118	=118
16C#\LL	16ddn/LL	.
16E#\ 16G#\ 16B\	16e#/ 16g#/ 16b/	.
16C#\	16dd/	.
16E#\ 16G#\ 16B\	16e#/ 16g#/ 16b/	.
16C#\	16dd/	.
16E#\ 16G#\ 16B\JJ	16e#/ 16g#/ 16b/JJ	.
16C#\LL	(16bb#\LL	.
16E#\ 16G#\ 16B\	16ccc#\	.
16C#\	16dddn\	.
16E#\ 16G#\ 16B\	16ccc#\J	.
16C#\	8ddd\J)	.
16E#\ 16G#\ 16B\JJ	.	.
16C#\LL	16cc#/LL	.
16F#\ 16A\	16f#/ 16a/	.
16C#\	16cc#/	.
16F#\ 16A\	16f#/ 16a/	.
16C#\	16cc#/	.
16F#'\ 16A'\JJ	16f#/ 16a/JJ	.
=119:|!	=119:|!	=119:|!
*>4B2	*>4B2	*>4B2
16BBB/LL	16aa\LL	.
16DD#/	16ff#\	.
16FF#/	16dd#\	.
16AA/	16b\	<
16BB/	16a\	.
16D#/JJ	16f#\JJ	.
16F#\LL	16d#/LL	.
16A\	16B/	.
16F#\	16d#/	.
16D#\	16f#/	.
16BB\	16a/	.
16AA\JJ	(16b/JJ	.
(16FF#/LL	16dd#\LL	>
16BBB/J	16bb\J)	.
8EE/J)	8gg#\J	.
8r	8r	.
*	*clefF4	*clefF4
=120	=120	=120
*>Var5	*>Var5	*>Var5
*M4/4	*M4/4	*M4/4
4r	2G#\	f
4EE'/	.	.
[2GG#/	[2E\	.
=121	=121	=121
*	*^	*
4GG#/]	2A/	4E\]	.
4FF#'/	.	8F#\L	.
.	.	8C#\J	.
[2AA/	[2F#/	4D#\	.
.	.	4BB\	.
=122	=122	=122	=122
4AA/]	2B\	4F#/]	.
4GG#'/	.	8G#/L	.
.	.	8D#/J	.
[2BB/	[2G#\	4E/	.
.	.	4Dn/	.
=123	=123	=123	=123
4BB/]	2c#/	4C#\ 4G#\]	.
4AA'/	.	8A\L	.
.	.	8E\J	.
4Cn/	[2A/	4F#\	.
[4EE/	.	4Cn\	.
=124	=124	=124	=124
*^	*	*	*
2BB/	4EE\]	(4A/]	1r	.
.	8FF#\L	4A#/	.	.
.	8CC#\J	.	.	.
[2FF#/	4DD#\	4B/	.	.
.	[4BBB\	4An/)	.	.
=125	=125	=125	=125	=125
4FF#/]	4BBB\]	4G#/	4r	.
4GG#/	8GG#\L	4B/	4E\	.
.	8DD#\J	.	.	.
2r	4EE\	4B/	2G#\	.
.	4BBB\	4e/	.	.
*	*	*v	*v	*
*	*	*clefG2	*clefG2
=126	=126	=126	=126
4G#/	4BBB#\	(2.e/	.
4A/	2CC#\	.	.
4C#/ 4B-/	.	.	.
4A/	[4CCn\ 4Cn\	4fn/	.
=127	=127	=127	=127
4GGn/	2.CC\]	4e/ 4gn/	.
4FFn/	.	4fn/ 4a/	.
4EE/	.	4g/ 4b-/	.
4FF#/	4BBB\	4d#/ 4bn/)	.
*v	*v	*	*
*	*clefF4	*clefF4
=128	=128	=128
8r	2G#\	f
8BBB'/L	.	.
8CC#/	.	.
8DD#/J	.	.
8EE'/L	[2E\	.
8FF#'/	.	.
8GG#'/	.	.
8EE'/J	.	.
=129	=129	=129
*	*^	*
8FF#'/L	2A/	4E\]	.
8BBB'/	.	.	.
8DD#'/	.	8F#\L	.
8EE'/J	.	8C#\J	.
8FF#'/L	2F#/	4D#\	.
8GG#'/	.	.	.
8AA'/	.	4BB\	.
8FF#'/J	.	.	.
*	*v	*v	*
*	*clefG2	*clefG2
=130	=130	=130
*	*^	*
8BB'\L	8r	2g#\	.
8D#'\	8b'/L	.	.
8E'\	8cc#'/	.	.
8F#'\J	8dd#'/J	.	.
2G#\	8ee'/L	[2e\	f
.	8ff#'/	.	.
.	8gg#'/	.	.
.	8ee'/J	.	.
=131	=131	=131	=131
2F#\	8aa/L	4e\]	.
.	8cc#/	.	.
.	8dd#/	8f#\L	.
.	8ee/J	8c#\J	.
2A\	8ff#/L	4d#\	.
.	8gg#/	.	.
.	8aa/	[4B\	.
.	8ff#/J	.	.
=132	=132	=132	=132
2G#\	8bb/L	4B\]	.
.	8dd#/	.	.
.	8ee/	8g#\L	.
.	8ff#/J	8d#\J	.
2B\	8gg#/L	4e\	.
.	8aa/	.	.
.	8bb/	4dn\	.
.	8gg#/J	.	.
=133	=133	=133	=133
2A\	8cccn/L	4cn\	.
.	8ee/	.	.
.	8ff#/	8a\L	.
.	8gg#/J	8e\J	.
(2c#\	8aa/L	4fn\	.
.	8bb/	.	.
.	8ccc'/	4e\	.
.	8aa/J	.	.
*clefG2	*	*	*
*	*v	*v	*
=134	=134	=134
*^	*	*
4dn/)	4cn\	8dddn\L	.
.	.	8ff#\	.
8b/L	2B\	8ggn\	.
8f#/J	.	8aa\J	.
4gn/	.	8bb\L	.
.	.	8cccn\	.
4fn/	4Gn\	8ddd\	.
.	.	8bb\J	.
=135	=135	=135	=135
*	*	*^	*
8e/L	[2cn\	8ee/L	2r	.
8fn/	.	8ddn/	.	.
8g#/	.	8ee/	.	.
8f/J	.	8ffn/J	.	.
4e/	4c\]	8ggn/L	4ee\	.
.	.	8aa#/	.	.
4f#/	4B\	8bb/	8dd#\	.
.	.	8dd#/J	8r	.
*v	*v	*	*	*
*clefF4	*	*	*
*	*v	*v	*
=136	=136	=136
2B\	8dddn'\L	.
.	8ff#'\	.
.	8gg#'\	.
.	8aa#'\J	.
[2Dn\	8bb'\L	.
.	8ccc#'\	.
.	8ddd'\	.
.	8ff#'\J	.
=137	=137	=137
4D\]	8ee#'\	.
.	8c#'/L	.
8C#/L	8d#'/	.
8BB/J	8e#'/J	.
4AA/	8f#'/L	.
.	8g#'/	.
[4FF#/	8a'/	.
.	8c#'/J	.
=138	=138	=138
*^	*^	*
2r	8FF#/L]	2g#'/	4B#\	.
.	8GGG#/	.	.	.
.	8AAA#/	.	(2d#\	.
.	8BBB#/J	.	.	.
[2G#/	8CC#'/L	2r	.	.
.	8DD#'/	.	.	.
.	8EE'/	.	4c#\)	.
.	8CC#'/J	.	.	.
*	*	*v	*v	*
=139	=139	=139	=139
8G#/L]	4DD#\	8r	.
8F##/	.	8d#'/L	.
8D#/	4r	8e#'/	.
8C#/J	.	8f##'/J	.
4BBn/	4r	8g#'/L	.
.	.	8a#'/	.
4r	[4GG#\	8b'/	.
.	.	8g#'/J	.
=140	=140	=140	=140
*	*	*^	*
2F#/	8GG#\L]	2aan/	8r	.
.	8FF#\	.	8an\L	.
.	8D#\	.	8cc#\	.
.	8E#\J	.	8b\J	.
[2A/	8F#\L	[2cc#/	8a\L	.
.	8C#\	.	8c#\	.
.	8F#\	.	8d#\	.
.	8En\J	.	8e\J	.
=141	=141	=141	=141	=141
4A/]	8D#\L	4cc#/]	8f#\L	.
.	8BB\	.	8d#\	.
2.r	8C#\	4g#/ 4b/	8e\	.
.	8D#\J	.	8f#\J	.
.	8E\L	4f#/ 4a/	8B\L	.
.	8BB\	.	8d#\	.
.	8C#\	4g#/	(8e\	.
.	8AA#\J	.	8c#\J	.
*v	*v	*	*	*
=142	=142	=142	=142
2BB/	8e/ 8g#/L)	8B\	.
.	8g#'/ 8ee'/	8r	.
.	8a'/ 8ff#'/	2.r	.
.	8b/ 8gg#/J	.	.
4BBB/	8cc#'\ 8aa'\L	.	.
.	8dd#'\ 8bb'\	.	.
[4AAA/	8ee'\ 8ccc#'\	.	.
.	8ff#'\ 8ddd#'\J	.	.
*	*v	*v	*
=143	=143	=143
(2AAA/]	8cc#'\ 8ee'\L	.
.	8b'\ 8dd#'\	.
.	8cc#\ 8ee\	.
.	8dd#'\ 8ff#'\J	.
4GGG#/)	8ee'\ 8gg#'\L	.
.	8ff#'\ 8aa'\	.
[4E\	8gg#'\ 8bb'\	.
.	8bb'\J	.
=144	=144	=144
4E\]	2bb\	f
8Dn\L	.	.
8C#\J	.	.
8BB/L	[2ddn\	.
8D/	.	.
8FF#/	.	.
8FF#/J	.	.
=145	=145	=145
*	*^	*
8EE#/L	4dd/]	2g#\	.
8C#/	.	.	.
8EE#/	8cc#/L	.	.
8EE#/J	8b/J	.	.
8FF#/L	4a/	4c#\	.
8F#/	.	.	.
8C#/	4r	[4a\	.
8C#/J	.	.	.
=146	=146	=146	=146
8BB#/L	2dd#/	4a\]	.
8D#/	.	.	.
8GG#/	.	8g#\L	.
8GG#/J	.	8f#\J	.
8C#/L	4g#/	4e\	.
8E/	.	.	.
8GG#/	[4cc#/ [4ee/	4r	.
8GG#/J	.	.	.
=147	=147	=147	=147
8FF##/L	4cc#/] 4ee/]	4.a#\	.
8F##/	.	.	.
8D#/	8dd#/L	.	.
8D#/J	8cc#/J	8a#\	.
8GG#/L	4g#/ 4b/	4d#\	.
8G#/	.	.	.
8GG#/	4r	4b\ 4dd#\ 4gg#\	.
[8GG#/J	.	.	.
=148	=148	=148	=148
4GG#/]	2r	2cc#\ 2ee\ 2aan\	.
8FF#/L	.	.	.
8EE/J	.	.	.
4DD#/	(2f#/ 2a/	8cn\L	.
.	.	8A\)	.
[4Cn/	.	8d#\	.
.	.	8d#\J	.
=149	=149	=149	=149
*^	*	*	*
2.r	4C/]	2ee\ 2gg#\ 2bb\	2r	.
.	8BB/L	.	.	.
.	8AA/J	.	.	.
.	4GG#/	(2b/ 2ee/	8g#\L	.
.	.	.	8e\J)	.
[4G#\	8e/L	.	4r	.
.	[8e/J	.	.	.
*v	*v	*	*	*
*	*v	*v	*
=150	=150	=150
4G#\] 4e\]	2aa\ 2ccc#\ 2aaa\	.
8F#\ 8d#\L	.	.
8E\ 8c#\J	.	.
4D#\ 4B\	8aa\ (8ccc#\L	.
.	8ff#\ 8aa\	.
4BB/ 4D#/	8aa\ 8ccc#\)	.
.	8aa\ 8ccc#\J	.
=151	=151	=151
8C#/ 8E/L	4aa\ 4ccc#\	.
8BB/ 8D#/	.	.
8C#/ 8E/	8gg#\ 8bb\L	.
8D#/ 8F#/J	8ff#\ 8aa\J	.
8E/L	4b\ 4gg#\	.
8BB/	.	.
8EE/	4cc#\ 4ff#\ 4aa\	.
[8E/J	.	.
=152	=152	=152
4E/]	2bb\	p
8Dn/L	.	.
8C#/J	.	.
8BB/L	[2ddn\	.
8D/	.	.
8FF#/	.	.
8FF#/J	.	.
=153	=153	=153
*	*^	*
8EE#/L	4dd/]	2g#\	.
8C#/	.	.	.
8EE#/	8cc#/L	.	.
8EE#/J	8b/J	.	.
8FF#/L	4a/	4c#\	.
8F#/	.	.	.
8C#/	4r	[4a\	.
8C#/J	.	.	.
=154	=154	=154	=154
8BB#'/L	2dd#/	4a\]	.
8D#/	.	.	.
8GG#/	.	8g#\L	.
8GG#/J	.	8f#\J	.
8C#/L	4g#/	4e\	.
8E/	.	.	.
8GG#/	([4ee/	4cc#\	.
8GG#/J	.	.	.
=155	=155	=155	=155
8FF##/L	4cc#/ 4ee/])	4.a#\	.
8F##/	.	.	.
8D#/	8dd#/L	.	.
8D#/J	8cc#/J	8a#\	.
8GG#/L	4g#/ 4b/	4d#\	.
8G#/	.	.	.
8GG#/	4r	4b\ 4dd#\ 4gg#\	.
[8GG#/J	.	.	.
=156	=156	=156	=156
4GG#/]	2cc#\ 2ee\ 2aan\	2r	.
8FF#/L	.	.	.
8EE/J	.	.	.
4DD#/	2f#/ 2a/	8cn\L	.
.	.	8A\	.
[4Cn/	.	8d#\	.
.	.	8d#\J	.
=157	=157	=157	=157
*^	*	*	*
4C/]	2.r	2ee\ 2gg#\ 2bb\	2r	.
8BB/L	.	.	.	.
8AA/J	.	.	.	.
4GG#/	.	2b/ 2ee/	8g#\L	.
.	.	.	8e\J	.
8e/L	[4G#\	.	4r	.
[8e/J	.	.	.	.
*v	*v	*	*	*
*	*v	*v	*
=158	=158	=158
4G#\] 4e\]	2ccc#\ 2aaa\	.
8F#\ 8d#\L	.	.
8E\ 8c#\J	.	.
4D#\ 4B\	8aa\ (8ccc#\L	.
.	8ff#\ 8aa\	.
4BB/ 4D#/	8aa\ 8ccc#\)	.
.	8aa\ 8ccc#\J	.
=159	=159	=159
*	*^	*
8C#\ 8E\L	2r	4aa\ 4ccc#\	.
8BB\ 8D#\	.	.	.
8C#\ 8E\	.	8gg#\ 8bb\L	.
8D#\ 8F#\J	.	8ff#\ 8aa\J	.
8E\ 8G#\	8r	8ee\ 8gg#\	.
8GG#/L	4b/	8e\L	.
8AA/	.	8f#\	.
8BB/J	8d#/ 8b/	8f#\J	.
*	*v	*v	*
=160	=160	=160
*>Var6	*>Var6	*>Var6
*M3/4	*M3/4	*M3/4
*^	*^	*
(4BB'/	4EE\	(4b'/	4g#'\	p
4BB'/	4GG#\	4b/	4e\	.
4BB'/)	4FF#\	4b'/)	4f#\	.
=161	=161	=161	=161	=161
(4BB/	4AA\	(4b'/	4d#\	.
4BB'/	4FF#\	4b'/	2B\	.
4BB/)	4GG#\	4b/)	.	.
=162	=162	=162	=162	=162
8BB/L	(4EE\	8b/L	(4g#\	.
8BB/J	.	8b/J	.	.
8BB/L	4GG#\	8b/L	4e\	.
8BB/J	.	8b/J	.	.
8BB/L	8FF#\L	8b/L	4f#\)	.
8BB/J	8EE\J)	8b/J	.	.
=163	=163	=163	=163	=163
8BB/L	(4DD#\	8b/L	(4f#\	.
8BB/J	.	8b/J	.	.
8BB/L	4CC#\	8b/L	4a#\	.
8BB/J	.	8b/J	.	.
8BB/L	8BBB\L	8b/L	8b\L	.
8BB/J	8AAn\J)	8dd#/ 8ff#/ 8bb/J	8b\J)	.
*v	*v	*	*	*
*	*v	*v	*
=164	=164	=164
*M9/8	*M9/8	*M9/8
*^	*^	*
8BB/L	4.GG#\	4.ee/ (4.bb/	8b\L	.
8BB/	.	.	8b\	.
8BB/J	.	.	8b\J	.
8BB/L	4.GG#\	4.ee/	8b\L	.
8AA#/	.	.	8a#\	.
8BB/J	.	.	8b\J	.
8BB/L	4.AAn\	4gg#/	8b\L	.
8BB/	.	.	8b\	.
8BB/J	.	8ff#/)	8b\J	.
=165	=165	=165	=165	=165
16BB/LL	(4.FF#\	(4.dd#/	16b\LL	.
16C#/	.	.	16cc#\	.
16BB/	.	.	16b\	.
16C#/	.	.	16cc#\	.
16BB/	.	.	16b\	.
16C#/JJ	.	.	16cc#\JJ	.
16BB/LL	4.DD#\	4.bb/	16b\LL	.
16C#/	.	.	16cc#\	.
16BB/	.	.	16b\	.
16C#/	.	.	16cc#\	.
16BB/	.	.	16b\	.
16C#/JJ	.	.	16cc#\JJ	.
16BB/LL	4.FF#\)	4.aa/)	16b\LL	.
16C#/	.	.	16cc#\	.
16BB/	.	.	16b\	.
16C#/	.	.	16cc#\	.
16BB/	.	.	16b\	.
16C#/JJ	.	.	16cc#\JJ	.
=166	=166	=166	=166	=166
16BB/LL	8EE\	4.gg#/	16b\LL	.
16F#/	.	.	16ff#\	.
16E/	8r	.	16ee\	.
16F#/	.	.	16ff#\	.
16E/	8r	.	16ee\	.
16F#/JJ	.	.	16ff#\JJ	.
16E/LL	[4.C#\	[4.eee/	16ee\LL	.
16F#/	.	.	16ff#\	.
16E/	.	.	16ee\	.
16F#/	.	.	16ff#\	.
16E/	.	.	16ee\	.
16F#/JJ	.	.	16ff#\JJ	.
16E/LL	4C#\]	4eee/]	16ee\LL	.
16F#/	.	.	16ff#\	.
16E/	.	.	16ee\	.
16F#/	.	.	16ff#\	.
16E/	8Cn\	8eee/	16ee\	.
16F#/JJ	.	.	16ff#\JJ	.
=167	=167	=167	=167	=167
16Gn/LL	4.Cn\	4.eee/	16ee\LL	p
16E/	.	.	16ggn\	.
16G/	.	.	16ee\	.
16E/	.	.	16gg\	.
16G/	.	.	16ee\	.
16E/JJ	.	.	16gg\JJ	.
16GGn/LL	4.CCn\	4.aa#/	16ee\LL	.
16EE/	.	.	16gg\	.
16GG/	.	.	16ee\	.
16EE/	.	.	16gg\	.
16GG/	.	.	16ee\	.
16EE/JJ	.	.	16gg\JJ	.
*v	*v	*	*	*
*	*v	*v	*
=168	=168	=168
*M3/4	*M3/4	*M3/4
*^	*^	*
(32BBB/LLL	4r	4bb/	(32dd#\LLL	.
32BB/	.	.	32cc#\	.
32BBB/	.	.	32b\	.
32BB/	.	.	32cc#\)	.
(32BBB/)	.	.	(32b\	.
32BB/	.	.	32cc#\	.
32BBB/	.	.	32b\	.
32BB/JJJ)	.	.	32cc#\JJJ)	.
=169	=169	=169	=169	=169
32BB/LLL	(8EE\L	32b/LLL	(8g#\L	.
32C#/	.	32cc#/	.	.
32BB/	.	32b/	.	.
32C#/	.	32cc#/	.	.
32BB/	8GG#\J)	32b/	8e\J)	.
32C#/	.	32cc#/	.	.
32BB/	.	32b/	.	.
32C#/JJJ	.	32cc#/JJJ	.	.
32BB/LLL	(8GG#\L	32b/LLL	(8e\L	.
32C#/	.	32cc#/	.	.
32BB/	.	32b/	.	.
32C#/	.	32cc#/	.	.
32BB/	8EE\J)	32b/	8g#\J)	.
32C#/	.	32cc#/	.	.
32BB/	.	32b/	.	.
32C#/JJJ	.	32cc#/JJJ	.	.
32BB/LLL	(8EE\L	32b/LLL	(8g#\L	.
32C#/	.	32cc#/	.	.
32BB/	.	32b/	.	.
32C#/	.	32cc#/	.	.
32BB/	8FF#\J)	32b/	8f#\J)	.
32C#/	.	32cc#/	.	.
32BB/	.	32b/	.	.
32C#/JJJ	.	32cc#/JJJ	.	.
=170	=170	=170	=170	=170
32BB/LLL	(8DD#\L	32b/LLL	(8f#\L	.
32C#/	.	32cc#/	.	.
32BB/	.	32b/	.	.
32C#/	.	32cc#/	.	.
32BB/	8AA\J)	32b/	8d#\J)	.
32C#/	.	32cc#/	.	.
32BB/	.	32b/	.	.
32C#/JJJ	.	32cc#/JJJ	.	.
(32BB/LLL	8AA\L	32b/LLL	(8d#\L	.
32C#/	.	32cc#/	.	.
32BB/	.	32b/	.	.
32C#/	.	32cc#/	.	.
32BB/	8GG#\J)	32b/	8e\J)	.
32C#/	.	32cc#/	.	.
32BB/	.	32b/	.	.
32C#/JJJ	.	32cc#/JJJ	.	.
32BB/LLL	(8GG#\L	32b/LLL	(8e\L	.
32C#/	.	32cc#/	.	.
32BB/	.	32b/	.	.
32C#/	.	32cc#/	.	.
32BB/	8FF#\J)	32b/	8d#\J)	.
32C#/	.	32cc#/	.	.
32BB/	.	32b/	.	.
32C#/JJJ	.	32cc#/JJJ	.	.
=171	=171	=171	=171	=171
32BB/LLL	(8EE\L	32b/LLL	(8g#\L	.
32C#/	.	32cc#/	.	.
32BB/	.	32b/	.	.
32C#/	.	32cc#/	.	.
32BB/	8GG#\J)	32b/	8e\J)	.
32C#/	.	32cc#/	.	.
32BB/	.	32b/	.	.
32C#/JJJ	.	32cc#/JJJ	.	.
32BB/LLL	(8GG#\L	32b/LLL	(8e\L	.
32C#/	.	32cc#/	.	.
32BB/	.	32b/	.	.
32C#/	.	32cc#/	.	.
32BB/	8EE\J)	32b/	8g#\J)	.
32C#/	.	32cc#/	.	.
32BB/	.	32b/	.	.
32C#/JJJ	.	32cc#/JJJ	.	.
32BB/LLL	(8EE\L	32b/LLL	(8g#\L	.
32C#/	.	32cc#/	.	.
32BB/	.	32b/	.	.
32C#/	.	32cc#/	.	.
32BB/	8DD#\J)	32b/	8f#\J)	.
32C#/	.	32cc#/	.	.
32BB/	.	32b/	.	.
32C#/JJJ	.	32cc#/JJJ	.	.
=172	=172	=172	=172	=172
32BB/LLL	8DD#\L	32b/LLL	8f#\L	.
32C#/	.	32cc#/	.	.
32BB/	.	32b/	.	.
32C#/	.	32cc#/	.	.
32BB/	8DD#\J	32b/	8f#\J	.
32C#/	.	32cc#/	.	.
32BB/	.	32b/	.	.
32C#/JJJ	.	32cc#/JJJ	.	.
32BB/LLL	8CC#\L	32b/LLL	8a#\L	.
32C#/	.	32cc#/	.	.
32BB/	.	32b/	.	.
32C#/	.	32cc#/	.	.
32BB/	8CC#\J	32b/	8a#\J	.
32C#/	.	32cc#/	.	.
32BB/	.	32b/	.	.
32C#/JJJ	.	32cc#/JJJ	.	.
[4BB/	12BBB\L	12r	[4b\	.
.	12AAn\	12bb/L	.	.
.	12AA\J	12bb/J	.	.
=173	=173	=173	=173	=173
2.BB/_	12GG#\L	12bb/L	2.b\_	.
.	12GG#\	12aa#/	.	.
.	12GG#\J	12bb/J	.	.
.	12GG#\L	12bb/L	.	.
.	12GG#\	12ee/	.	.
.	12GG#\J	12ee/J	.	.
.	12GG#\L	12ee/L	.	.
.	12AA\	12gg#/	.	.
.	12AA\J	12ff#/J	.	.
=174	=174	=174	=174	=174
2.BB/]	(12AA\L	12ff#/L	(2.b\]	.
.	12FF#\	12dd#/	.	.
.	12FF#\J	12dd#/J	.	.
.	12FF#\L	12dd#/L	.	.
.	12DD#\	12bb/	.	.
.	12DD#\J	12bb/J	.	.
.	12DD#\L	12bb/L	.	.
.	12CC#\	12aa#/	.	.
.	12DD#\J)	12aan/J)	.	.
=175	=175	=175	=175	=175
4BB/	12DD#\L	12aa/L	4b\	.
.	12EE\	12gg#/	.	.
.	12EE\J	12gg#/J	.	.
[2E/	12r	12gg#/L	[2ee\	.
.	12C#\L	12eee/	.	.
.	12C#\J	12eee/J	.	.
.	12C#\L	(12eee/L	.	.
.	12BB#\	12ddd#/	.	.
.	12C#\J	12eee/J)	.	.
=176	=176	=176	=176	=176
8C#\L	2E/]	12eee/L	2ee\_	.
.	.	12ddd#/	.	.
8BB#\	.	.	.	.
.	.	12eee/J	.	.
8C#\J	.	12eee/L	.	.
.	.	12aa#/	.	.
8C#\L	.	.	.	.
.	.	12aa#/J	.	.
8Cn\	[4BBB/	12aa#/L	8ee\L]	.
.	.	dd#q\LL	.	.
.	.	eeq\JJ	.	.
.	.	12bb/	.	.
8C\J	.	.	8dd#\J	.
.	.	12ddn/ 12ee#/ 12gg#/ 12dddn/J	.	.
*v	*v	*	*	*
*	*v	*v	*
=177	=177	=177
2.BBB/]	32ddn'\ 32ee#'\ 32gg#'\ 32dddn'\LLL	f
.	32bb\	.
.	32gg#\	.
.	32ee#\JJJ	.
.	32dd'\LLL	.
.	32ee#\	.
.	32gg#\	.
.	32bb\JJJ	.
.	32gg#'\LLL	.
.	32ee#\	.
.	32dd\	.
.	32b\JJJ	.
.	32g#'\LLL	.
.	32b\	.
.	32dd\	.
.	32ee#\JJJ	.
.	32dd'\LLL	.
.	32b\	.
.	32g#\	.
.	32e#\JJJ	.
.	32cc#'\LLL	.
.	32b\	.
.	32g#\	.
.	32e#\JJJ	.
=178	=178	=178
[2.BBB/	32ccc#'\LLL	.
.	32aa\	.
.	32ff#\	.
.	32cc#\JJJ	.
.	32b#'\LLL	.
.	32cc#\	.
.	32ff#\	.
.	32aa\JJJ	.
.	32ff#'\LLL	.
.	32cc#\	.
.	32a\	.
.	32f#\JJJ	.
.	32e#'/LLL	.
.	32f#/	.
.	32a/	.
.	32cc#/JJJ	.
.	32ccn/LLL	.
.	32a/	.
.	32f#/	.
.	32en/JJJ	.
.	32bn'/LLL	.
.	32a/	.
.	32f#/	.
.	32d#/JJJ	.
=179	=179	=179
2.BBB/_	32gg#'\LLL	.
.	32ee\	.
.	32b\	.
.	32g#\JJJ	.
.	32f##'\LLL	.
.	32g#\	.
.	32b\	.
.	32ee\JJJ	.
.	32b'/LLL	.
.	32g#/	.
.	32e/	.
.	32B/JJJ	.
.	32A#'/LLL	.
.	32B/	.
.	32e/	.
.	32g#/JJJ	.
.	32B#'/LLL	.
.	32c#/	.
.	32e/	.
.	32an/JJJ	.
.	32g#'/LLL	.
.	32a/	.
.	32cc#/	.
.	32ee/JJJ	.
=180	=180	=180
2.BBB/_	32g#\LLL	.
.	32a\	.
.	32cc#\	.
.	32ee\JJJ	.
.	32f##\LLL	.
.	32g#\	.
.	32b\	.
.	32ee\JJJ	.
.	32f##\LLL	.
.	32g#\	.
.	32b\	.
.	32ee\JJJ	.
.	32f#\LLL	.
.	32f##\	.
.	32a#\	.
.	32ee\JJJ	.
.	32f#\LLL	.
.	32f##\	.
.	32a#\	.
.	32ee\JJJ	.
.	32f##\LLL	.
.	32g#\	.
.	32b\	.
.	32ee\JJJ	.
=181	=181	=181
2.BBB/_	32An/LLL	.
.	32f#/	.
.	32d#/	.
.	32a/JJJ	.
.	32d#/LLL	.
.	32a/	.
.	32f#/	.
.	32dd#/JJJ	.
.	32f#\LLL	.
.	32dd#\	.
.	32a\	.
.	32ff#\JJJ	.
.	32a\LLL	.
.	32ff#\	.
.	32dd#\	.
.	32aa\JJJ	.
.	32dd#\LLL	.
.	32aa\	.
.	32ff#\	.
.	32ddd#\JJJ	.
.	32ff#\LLL	.
.	32ddd#\	.
.	32aa\	.
.	32fff#\JJJ	.
=182	=182	=182
2.BBB/_	32a\LLL	.
.	32ff#\	.
.	32dd#\	.
.	32aa\JJJ	.
.	32ccn\LLL	.
.	32ff#\	.
.	32dd#\	.
.	32aa\JJJ	.
.	32b\LLL	.
.	32ff#\	.
.	32dd#\	.
.	32aa\JJJ	.
.	32a#\LLL	.
.	32ff#\	.
.	32dd#\	.
.	32aa#\JJJ	.
.	32an\LLL	.
.	32ff#\	.
.	32dd#\	.
.	32aan\JJJ	.
.	32g#\LLL	.
.	32ee\	.
.	32b\	.
.	32gg#\JJJ	.
=183	=183	=183
2.BBB/_	32g#\LLL	.
.	32ee\	.
.	32b\	.
.	32gg#\JJJ	.
.	32b\LLK	.
.	32gg#\L	.
.	32ee\	.
.	32bb\JJJ	.
.	32a#\LLL	.
.	32ff##\	.
.	32ee\	.
.	32aa#\JJJ	.
.	32an\LLL	.
.	32ff#\	.
.	32dd#\	.
.	32aan\JJJ	.
.	32g#\LLL	.
.	32ee#'\	.
.	32ddn\	.
.	32gg#\JJJ	.
.	32a\LLL	.
.	32ff#\	.
.	32dd#\	.
.	32aa\JJJ	.
=184	=184	=184
2BBB/]	32aa\LLL	.
.	32fff#\	.
.	32ddd#\	.
.	32aaa\JJJ	.
.	32ff#\LLL	.
.	32ddd#\	.
.	32aa\	.
.	32fff#\JJJ	.
.	32dd#\LLL	.
.	32aa\	.
.	32ff#\	.
.	32ddd#\JJJ	.
.	32a\LLL	.
.	32ff#\	.
.	32dd#\	.
.	32aa\JJJ	.
(CC#q/LL	.	.
DD#q/JJ)	.	.
32EE/	32gg#\LLL	.
*clefG2	*	*
32B/LLL	32b\	.
32c#/	32cc#\	.
32d#/JJJ	32dd#\JJJ	.
32e/LLL	32ee\LLL	.
32f#/	32ff#\	.
32g#/	32gg#\	.
32a#/JJJ	32aa#\JJJ	.
=185	=185	=185
*	*^	*
16b'\	8r	[2.b\	.
32ddn\LLL	.	.	.
32cc#\JJJ	.	.	.
32b\LLL	8bb/	.	.
32cc#\	.	.	.
32b\	.	.	.
32a\JJJ	.	.	.
32g#/LLL	8r	.	.
32a/	.	.	.
32g#/	.	.	.
32f#/JJJ	.	.	.
32e#/LLL	8bb/	.	.
32f#/	.	.	.
32e#/	.	.	.
32dn/JJJ	.	.	.
*clefF4	*	*	*
32c#\LLL	8r	.	.
32dn\	.	.	.
32c#\	.	.	.
32B\JJJ	.	.	.
32A\LLL	8ccc#/	.	.
32B\	.	.	.
32A\	.	.	.
32G#\JJJ	.	.	.
=186	=186	=186	=186
16F#'\	8r	2.b\_	.
*clefG2	*	*	*
32cc#/LLL	.	.	.
32b/JJJ	.	.	.
32a/LLL	8ccc#/	.	.
32b/	.	.	.
32a/	.	.	.
32g#/JJJ	.	.	.
32f#/LLL	8r	.	.
32g#/	.	.	.
32f#/	.	.	.
32e#/JJJ	.	.	.
32f#/LLL	8aa/	.	.
32en/	.	.	.
32d#/	.	.	.
32c#/JJJ	.	.	.
*clefF4	*	*	*
32B\LLL	8r	.	.
32c#\	.	.	.
32B\	.	.	.
32A\JJJ	.	.	.
32G#\LLL	8bb/	.	.
32A\	.	.	.
32G#\	.	.	.
32F#\JJJ	.	.	.
=187	=187	=187	=187
16E\	8r	2.b\]	.
*clefG2	*	*	*
32b/LLL	.	.	.
32a/JJJ	.	.	.
32g#/LLL	8bb/	.	.
32a/	.	.	.
32g#/	.	.	.
32f#/JJJ	.	.	.
32e/LLL	8r	.	.
32f#/	.	.	.
32e/	.	.	.
32d#/JJJ	.	.	.
32e/LLL	8gg#/	.	.
32d#/	.	.	.
32c#/	.	.	.
32B/JJJ	.	.	.
*clefF4	*	*	*
32A\LLL	8r	.	.
32B\	.	.	.
32A\	.	.	.
32G#\JJJ	.	.	.
32F#\LLL	8aa/	.	.
32E\	.	.	.
32D#\	.	.	.
32C#\JJJ	.	.	.
=188	=188	=188	=188
32D#\LLL	8r	[2.b\	.
32B\	.	.	.
32G#\	.	.	.
32B\JJJ	.	.	.
32d#\LLL	8gg#/	.	.
32B\	.	.	.
32G#\	.	.	.
32B\JJJ	.	.	.
32D#\LLL	8r	.	.
32B\	.	.	.
32F##\	.	.	.
32B\JJJ	.	.	.
32d#\LLL	8ff##/	.	.
32B\	.	.	.
32F##\	.	.	.
32B\JJJ	.	.	.
32D#\LLL	8r	.	.
32B\	.	.	.
32G#\	.	.	.
32B\JJJ	.	.	.
32d#\LLL	8gg#/	.	.
32B\	.	.	.
32G#\	.	.	.
32B\JJJ	.	.	.
=189	=189	=189	=189
32D#\LLL	8r	2.b\]	.
32d#\	.	.	.
32B\	.	.	.
32d#\JJJ	.	.	.
32F#\LLL	8aa/	.	.
32d#\	.	.	.
32B\	.	.	.
32d#\JJJ	.	.	.
32A\LLL	8r	.	.
32d#\	.	.	.
32B\	.	.	.
32d#\JJJ	.	.	.
*clefG2	*	*	*
32B/LLL	8aa/	.	.
32f#/	.	.	.
32d#/	.	.	.
32f#/JJJ	.	.	.
32d#/LLL	8r	.	.
32a/	.	.	.
32f#/	.	.	.
32a/JJJ	.	.	.
32e/LLL	8ccc#/	.	.
32a/	.	.	.
32f#/	.	.	.
32a/JJJ	.	.	.
=190	=190	=190	=190
32d#/LLL	8r	[2.b\	.
32a/	.	.	.
32f#/	.	.	.
32a/JJJ	.	.	.
32d#/LLL	8bb/	.	.
32b/	.	.	.
32f#/	.	.	.
32b/JJJ	.	.	.
32e/LLL	8r	.	.
32cc#/	.	.	.
32g#/	.	.	.
32cc#/JJJ	.	.	.
32f#/LLL	8aa/	.	.
32dd#/	.	.	.
32a/	.	.	.
32dd#/JJJ	.	.	.
32g#\LLL	8r	.	.
32ee\	.	.	.
32dd#\	.	.	.
32ee\JJJ	.	.	.
32dd#\LLL	8gg#/	.	.
32ee\	.	.	.
32cc#\	.	.	.
32a#\JJJ	.	.	.
=191	=191	=191	=191
32b/LLL	8r	2.b\]	.
32g#/	.	.	.
32f#/	.	.	.
32e/JJJ	.	.	.
32d#/LLL	8gg#/	.	.
32e/	.	.	.
32d#/	.	.	.
32c#/JJJ	.	.	.
*clefF4	*	*	*
32B\LLL	8r	.	.
32A\	.	.	.
32G#\	.	.	.
32F#\JJJ	.	.	.
32E\LLL	8bb/	.	.
32D#\	.	.	.
32C#\	.	.	.
32BB\JJJ	.	.	.
32AA/LLL	8r	.	.
32GG#/	.	.	.
32FF#/	.	.	.
32EE/JJJ	.	.	.
32DD#/LLL	8aa/	.	.
32BBB/	.	.	.
32CC#/	.	.	.
32DD#/JJJ	.	.	.
=192	=192	=192	=192
32EE/LLL	8r	2.b\	.
32FF#/	.	.	.
32AA/	.	.	.
32BB/JJJ	.	.	.
32FF#/LLL	8aa/	.	.
32AA/	.	.	.
32BB/	.	.	.
32D#/JJJ	.	.	.
32EE/LLL	8r	.	.
32FF#/	.	.	.
32AA/	.	.	.
32BB/JJJ	.	.	.
32FF#/LLL	8ff#/	.	.
32AA/	.	.	.
32BB/	.	.	.
32D#/JJJ	.	.	.
32EE/LLL	8r	.	.
32FF#/	.	.	.
32AA/	.	.	.
32BB/JJJ	.	.	.
32FF#/LLL	8dd#/	.	.
32AA/	.	.	.
32BB/	.	.	.
32D#/JJJ	.	.	.
=193	=193	=193	=193
32EE/LLL	2.bb/	8r	>
32FF#/	.	.	.
32AA/	.	.	.
32BB/JJJ	.	.	.
32FF#/LLL	.	8aa\	.
32AA/	.	.	.
32BB/	.	.	.
32D#/JJJ	.	.	.
32EE/LLL	.	8r	.
32FF#/	.	.	.
32AA/	.	.	.
32BB/JJJ	.	.	.
32FF#/LLL	.	8ff#\	.
32AA/	.	.	.
32BB/	.	.	.
32D#/JJJ	.	.	.
32EE/LLL	.	8r	.
32FF#/	.	.	.
32AA/	.	.	.
32BB/JJJ	.	.	.
32FF#/LLL	.	8dd#\	.
32AA/	.	.	.
32BB/	.	.	.
32D#/JJJ	.	.	.
=194	=194	=194	=194
32EE/LLL	8r	2.b\	>
32FF#/	.	.	.
32AA/	.	.	.
32BB/JJJ	.	.	.
32FF#/LLL	8aa/	.	.
32AA/	.	.	.
32BB/	.	.	.
32D#/JJJ	.	.	.
32EE/LLL	8r	.	.
32FF#/	.	.	.
32AA/	.	.	.
32BB/JJJ	.	.	.
32FF#/LLL	8ff#/	.	.
32AA/	.	.	.
32BB/	.	.	.
32D#/JJJ	.	.	.
32EE/LLL	8r	.	.
32FF#/	.	.	.
32AA/	.	.	.
32BB/JJJ	.	.	.
32FF#/LLL	8dd#/	.	.
32AA/	.	.	.
32BB/	.	.	.
32D#/JJJ	.	.	.
=195	=195	=195	=195
32EE/LLL	2.b/	8r	.
32FF#/	.	.	.
32AA/	.	.	.
32BB/JJJ	.	.	.
32FF#/LLL	.	8a\	.
32AA/	.	.	.
32BB/	.	.	.
32D#/JJJ	.	.	.
32EE/LLL	.	8r	.
32FF#/	.	.	.
32AA/	.	.	.
32BB/JJJ	.	.	.
32FF#/LLL	.	8f#\	.
32AA/	.	.	.
32BB/	.	.	.
32D#/JJJ	.	.	.
32EE/LLL	.	8r	.
32FF#/	.	.	.
32AA/	.	.	.
32BB/JJJ	.	.	.
32FF#/LLL	.	8d#\	pp
32AA/	.	.	.
32BB/	.	.	.
32D#/JJJ	.	.	.
*	*v	*v	*
=196	=196	=196
*>Theme	*>Theme	*>Theme
*	*^	*
.	.	(aq/LL	.
.	.	bq/JJ)	.
4EE/	(4g#/	4B\	.
4GG#/	4.e/	4B\	.
4AA/	.	4c#\	.
.	8f#/	.	.
*	*v	*v	*
=197	=197	=197
4BB\	4F#/ 4d#/	.
4C#\	2F#/ 2A/ 2B/)	.
4D#\	.	.
=198	=198	=198
*	*^	*
(4E\	(4g#/	4G#\ 4B\	.
4G#\	4.e/	4B\	.
4A#\)	.	4c#\	.
.	8f#/)	.	.
*	*v	*v	*
=199	=199	=199
(4B\	4d#/ (4f#/	.
4F#\	4c#/ 4e/ 4a#/	.
8BB/L	4d#/ 4f#/ 4b/)	.
8AAAn/ 8AAn/J)	.	.
=200	=200	=200
*^	*^	*
4GG#/	(2GGG#\	4e/ 4g#/ (4b/	4B\	.
4GG#/	.	4.e/	4B\	.
4AA/	4AAA\	.	4c#\	.
.	.	16g#/LL	.	.
.	.	16f#/JJ)	.	.
*	*	*v	*v	*
=201	=201	=201	=201
4r	4BBB\ 4BB\	4F#/ 4d#/	.
4E/ 4B/	4CC#\ 4C#\	2r	.
4F#/ 4A/	4D#\)	.	.
=202	=202	=202	=202
4G#/	(4EE\ 4E\	4r	.
4E/	4CC#\ 4C#\	4.e/	<
4E/	4CCn\) 4Cn\	.	.
.	.	8A#/	.
*	*	*clefF4	*clefF4
=203	=203	=203	=203
*	*	*^	*
(4EE/	2CCn\	(2A#/	4Gn\	p
4GGn/	.	.	4E\	.
4BB/)	4BBB\	4B/)	4D#\	.
*	*	*v	*v	*
*	*	*clefG2	*clefG2
=204	=204	=204	=204
*	*	*^	*
4B/	4r	(4b/	4r	.
4B/	4D#\	4.b/	4f#\	.
4B/	4E#\	.	4g#\	.
.	.	8cc#/	.	.
*v	*v	*	*	*
=205	=205	=205	=205
4F#\ 4B\	4b/	4r	.
4C#\ 4B\	4.an/	4e\	.
4D#\ 4B\	.	4f#\	.
.	8b/)	.	.
=206	=206	=206	=206
4E\ (4B\	(4a/	4r	.
4BB\ 4B\	4.g#/	4e\	.
4C#\ 4c#\)	.	4e\	.
.	8ee/)	.	.
*	*v	*v	*
=207	=207	=207
4D#\ (4B\	4d#/ (4g#/	.
4D#\ 4A#\	4c#/ 4f##/	>
4GG#\ 4G#\)	4B/ 4g#/)	.
=208	=208	=208
.	(Anq/LLL	.
.	c#q/	.
.	f#q/JJJ)	.
4FF#/ 4F#/	4a/	.
4F#\ 4A\	(4.a/	.
4E\ 4F#\ 4A\	.	.
.	8cc#\)	.
=209	=209	=209
D#q/LLL	d#q/LLL	.
(F#q/	f#q/	.
Aq/	aq/JJJ	.
Bq/JJJ	.	.
[2D#\) [2F#\ 2A\ [2B\	(4.cc#\	>
.	8b\)	.
8D#\] 8F#\] 8A\ 8B\L]	(8f#'/ 8a'/L	.
8E\ 8G#\ 8B\J	8e'/) 8g#'/J	.
=210	=210	=210
*^	*^	*
4r	2BB\	(8.g#/L	4e\	.
.	.	16a/Jk	.	.
(4G#/	.	4.b/	4e\	.
4F#/)	4BB\	.	4d#\	.
.	.	8a/)	.	.
*v	*v	*	*	*
*	*v	*v	*
=211	=211	=211
(4EE/	2d#\ 2f#\ (2a\	.
4BB/	.	.
4EE/ 4E/)	4B/ 4e/ 4g#/)	.
==	==	==
*-	*-	*-
!!!ENC: Craig Stuart Sapp
!!!END: 2008/11/11/
